X: 16491
T: Hair Of The Dog
R: reel
M: 4/4
K: Amixolydian
e3 f ecBc|ecBc A2 ag|f3 g fd d2|f2 f2 gfed|
e3 f ecBc|ecBc A2 ag|fd (3ddd fgaf|ecBc A3 d:|
ecBc ecfc|ecBc ecag|fd (3ddd fdad|fd (3ddd fgaf|
ecBc ecfc|ecBc ecag|fd (3ddd fgaf|ecBc A3 d:|
ec (3ccc ec (3ccc|ecfc ecBc|f2 fd f2 fd|g3 e dB (3BBB|
ec (3ccc ec (3ccc|ecfc ecBc|f2 fd fgaf|ecBc A4:|
a2 af ecBc|ecfc ecBc|g2 ge dB (3BBB|dBeB dB A2|
a2 af ecBc|ecfc ecBc|f2 fd f2 af|ecBc A4:|

